X: 7
T: Last Pint, The
C: Pierre Bensusan
Z: lusoceltibero
S: https://thesession.org/tunes/223#setting49386
R: hornpipe
M: 4/4
L: 1/8
K: Gmaj
|:G3E DEGA|BGAB AGED|G3E DEGA|BGAB A3z|
G3E DEGA|BGAB AGED|GABG BcAG|FDEF AGGF:|
|:GBdG BdGB|cBAG BGGF|GBdG BdGB|cBAG FDEF|
GBdG BdGB|cBAG BGGF|G3E DEGA|BGAB A4:|
BcBG cdcG|BcBG de d2|BcBG cdcG|BcBG AG E2|
BcBG cdcG|BcBG de d2|e2 g2 d2 g2|c4 BAGF|

%-------------------- TUNE SEPARATOR --------------------%

